X: 4
T: MacArthur Road
R: reel
M: 4/4
L: 1/8
K: Emaj
|:"E"BG G1/2G1/2G Bcef     |"E"g1/2g1/2g ge fece |"F#m"f3 g fece  |"A"gefg fece    |
|"E"BG G1/2G1/2G Bcef      |"C#m"f(gg)e fece     |"A"f2 ge fece   |1"B" Bcef e3 A :|2"B" Bcef "E"e3 g |]
|:"E"be e1/2e1/2e be"A"c'e |"E"be e1/2e1/2e bgfe |"F#m"f2 fg fece |"A"aege fece    |
|1"E"be e1/2e1/2e be"A"c'e |"E"be e1/2e1/2e bgfe |"A"f2 fg fecB   |"B"Bcef "E"e3g :|
|2"E"BG G1/2G1/2G Bcef     |"C#m"f(gg)e fece     |"A"f2 ge fece   |"B"Bcef "E"e4   |]
